X: 1
T: Farewell Auld Fiddler
T: In Memory of Bert Murray
C: Hugh Murray
O: Cape Breton
R: slow air
M: C
L: 1/8
K: D
G \
| "D"FGAd "A7"cdec | "D"d2dA F3A | "G"GABd "Em"gfed | "A"ce"E7"Bc "A"A3G \
| "D"FGAd "A7"cdec | "Bm"d2dA "D"F3A | "Em"G2GE "A7"A2AG | "D"FA"A7"EF "D"D3 :|
d \
| "A7"cdeg "D"~f2fd | "G"[g2B2][B2G2] "D"[A2D2]AF | "G"GABd "D"AFdF | "Em"GFED "A7"E3d \
| "A7"cdeg "D"~f2fd | "G"[g2B2][B2G2] "D"[A2D2]AF | "G"GABd "D"AF"A"EF | "G"D4 "D"D3 |]
d \
| "A7"cdeg "D"~f2fd | "G"[g2B2][B2G2] "D"[A2D2]AF | "G"GABd "D"AFdf | "Em"gfed "A7"ecAG \
| "D"FGAd "A7"cdec | "Bm"d2dA "D"F3A | "Em"G2GE "A7"A2AG | "D"FA"A7"EF "D"D3 |]
